X: 19751
T: Jenny Pluck Pears
R: jig
M: 6/8
K: Eminor
|:E2B B2A|B3/2c/B A3/2G/F|G2G A3/2B/G|F2E E2D:|
|:F3/2G/F D2E|E3/2F/E B,2F|G2G A3/2B/G|F2E E2D:|
E2E F3/2G/A|G3/2F/E D2B,|E2E F3/2G/A|G3/2F/E D2B,|
B2B A2F|G3/2F/E D2B,|^C3/2D/E D3/2^C/D|E2E E3|

